X: 2222
Q: "Irish Reel."
M: C
L: 1/8
K: Ador
|:\
vA2(^cA) eAcA | BGBd gedB |\
(ea)(ag) (ea)(ag) | (ef)(gf) (ef)(gf) |
(ea)(ag) (ea)(ag) | egfa gedB |\
eaab c'abg | egfa gfge |\
dega bgaf | e(gf)(a g)edB |]


